X: 17349
T: High Drive, The
R: reel
M: 4/4
K: Dmajor
d3 e fedA|(3BBB gB BAGB|GA(3AAA fedf|eA(3AAA afge|
d3 e fedA|(3BBB gB BAGB|GA(3AAA fedf|edce d4:|
|:a3 g ad(3ddd|AB(3BBB gBdB|GA(3AAA fedf|eA(3AAA efge|
a3 g ad(3ddd|AB(3BBB gBdB|GA(3AAA fedf|edce d4:|

